usr/share/icons/biglinux-icons-material-dark/16/actions/table.svg

<svg xmlns="http://www.w3.org/2000/svg" viewBox="0 0 16 16">
<defs id="defs3051">
<style id="current-color-scheme" type="text/css">
.ColorScheme-Text{color:#dedede}
</style>
</defs>
<path d="M2 2v12h12V2zm1 1h3v2H3zm4 0h2v2H7zm3 0h3v2h-3zM3 6h3v3H3zm4 0h2v3H7zm3 0h3v3h-3zm-7 4h3v3H3zm4 0h2v3H7zm3 0h3v3h-3z" class="ColorScheme-Text" style="fill:currentColor;fill-opacity:1;stroke:none"/>
<path d="M3 3h3v2H3Z" style="color:#000;fill:#1d99f3"/>
</svg>

<svg xmlns="http://www.w3.org/2000/svg" viewBox="0 0 16 16">
  <defs id="defs3051">
    <style type="text/css" id="current-color-scheme">
      .ColorScheme-Text {
        color:#dedede;
      }
      </style>
  </defs>
  <path 
     style="fill:currentColor;fill-opacity:1;stroke:none" 
     d="M 2 2 L 2 14 L 14 14 L 14 2 L 2 2 z M 3 3 L 6 3 L 6 5 L 3 5 L 3 3 z M 7 3 L 9 3 L 9 5 L 7 5 L 7 3 z M 10 3 L 13 3 L 13 5 L 10 5 L 10 3 z M 3 6 L 6 6 L 6 9 L 3 9 L 3 6 z M 7 6 L 9 6 L 9 9 L 7 9 L 7 6 z M 10 6 L 13 6 L 13 9 L 10 9 L 10 6 z M 3 10 L 6 10 L 6 13 L 3 13 L 3 10 z M 7 10 L 9 10 L 9 13 L 7 13 L 7 10 z M 10 10 L 13 10 L 13 13 L 10 13 L 10 10 z "
     class="ColorScheme-Text"/>
  <path
     style="color:#000000;fill:#1d99f3"
     d="M 3,3 6,3 6,5 3,5 Z" />
</svg>
